X: 5
T: Martin Wynne's
C: Martin Wynne
Z: AdamM
S: https://thesession.org/tunes/347#setting48298
R: reel
M: 4/4
L: 1/8
K: Dmaj
|:AF F2 GE E2|F2 AF EF DB,|A,B, DF E2 EF|AB df ef dB|
AF F2 GE E2|F2 AF EFDB,|A,B, DF E2 EF|ABde fd d2:|
|:fa af g2 eg|fd d2 ed Bc|dB AF DF BF|AB de fe e2|
faaf g2 eg|fd d2 ed Bc|dB AF DF BF|ABde fd d2:|

%-------------------- TUNE SEPARATOR --------------------%

